public/apple.svg

<?xml version="1.0" encoding="UTF-8" standalone="no" ?>
<!DOCTYPE svg PUBLIC "-//W3C//DTD SVG 1.1//EN" "http://www.w3.org/Graphics/SVG/1.1/DTD/svg11.dtd">
<svg xmlns="http://www.w3.org/2000/svg" xmlns:xlink="http://www.w3.org/1999/xlink" version="1.1" width="600" height="600" viewBox="0 0 600 600" xml:space="preserve">
<desc>Created with Fabric.js 4.2.0</desc>
<defs>
</defs>
<rect x="0" y="0" width="100%" height="100%" fill="transparent"></rect>
<g transform="matrix(1 0 0 1 300 300)" id="9bf5d144-407e-4fd6-970c-24fbbcfb5e8d"  >
<rect style="stroke: none; stroke-width: 1; stroke-dasharray: none; stroke-linecap: butt; stroke-dashoffset: 0; stroke-linejoin: miter; stroke-miterlimit: 4; fill: rgb(255,255,255); fill-opacity: 0; fill-rule: nonzero; opacity: 1;" vector-effect="non-scaling-stroke"  x="-300" y="-300" rx="0" ry="0" width="600" height="600" />
</g>
<g transform="matrix(Infinity NaN NaN Infinity 0 0)" id="3b4e1bf0-12cd-43f5-bd1d-043ab6ab6388"  >
</g>
<g transform="matrix(4.23 0 0 4.23 269.85 300)"  >
<g style="" vector-effect="non-scaling-stroke"   >
		<g transform="matrix(1 0 0 1 0 0)"  >
<path style="stroke: rgb(0,0,0); stroke-width: 0.036; stroke-dasharray: none; stroke-linecap: butt; stroke-dashoffset: 0; stroke-linejoin: miter; stroke-miterlimit: 10; fill: rgb(0,0,0); fill-rule: evenodd; opacity: 1;" vector-effect="non-scaling-stroke"  transform=" translate(-64.19, -71.13)" d="M 63.714 34.589 C 59.538 32.824999999999996 54.605999999999995 32.357 48.629999999999995 33.041 C 42.51 33.724999999999994 34.122 34.373 28.037999999999997 38.873 C 21.917999999999996 43.300999999999995 15.257999999999997 50.177 12.629999999999997 59.501 C 9.929999999999996 68.86099999999999 9.137999999999998 82.216 12.341999999999997 94.277 C 15.653999999999996 106.22800000000001 23.285999999999998 122.392 32.034 130.564 C 40.638 138.44899999999998 52.914 140.861 63.714 141.976 C 74.442 143.093 86.682 141.078 96.006 137.333 C 105.186 133.37199999999999 113.285 127.325 118.794 119.188 C 124.157 110.909 127.938 99.604 128.334 88.731 C 128.514 77.82499999999999 125.166 63.244 120.63000000000001 54.568 C 116.09400000000001 45.855999999999995 108.858 40.708 101.55000000000001 37.036 C 94.13400000000001 33.328 85.96200000000002 31.996000000000002 76.638 32.752 C 76.06200000000001 30.880000000000003 75.953 28.828000000000003 76.31400000000001 26.596000000000004 C 76.566 24.292000000000005 77.286 21.880000000000003 78.474 19.216000000000005 C 78.87 17.596000000000004 78.51 16.264000000000003 77.25 15.220000000000004 C 75.882 14.032000000000004 72.533 12.556000000000004 71.094 12.736000000000004 C 69.69 12.880000000000004 68.97 13.960000000000004 68.934 16.120000000000005 C 69.474 18.964000000000006 70.122 21.736000000000004 70.482 24.724000000000004 C 70.95 27.676000000000002 71.13 30.556000000000004 71.419 33.652 C 68.574 24.94 63.643 17.92 56.623 12.448 C 49.387 6.904000000000001 38.839 2.26 29.262999999999998 0.7480000000000011 C 19.757999999999996 -0.825999999999999 10.145999999999997 0.03700000000000114 0.029999999999997584 3.205000000000001 C 5.573999999999997 10.657 12.233999999999998 16.453 20.009999999999998 20.737000000000002 C 27.714 24.949 38.334 26.785000000000004 46.47 28.765 C 54.534 30.781 61.769999999999996 31.825 68.322 32.437 C 66.81 33.157 65.262 33.878 63.714000000000006 34.596999999999994 z" stroke-linecap="round" />
</g>
		<g transform="matrix(1 0 0 1 4.55 15.41)"  >
<path style="stroke: rgb(0,0,0); stroke-width: 0.036; stroke-dasharray: none; stroke-linecap: butt; stroke-dashoffset: 0; stroke-linejoin: miter; stroke-miterlimit: 10; fill: rgb(255,0,0); fill-rule: evenodd; opacity: 1;" vector-effect="non-scaling-stroke"  transform=" translate(-68.74, -86.54)" d="M 69.869 39.197 C 67.817 36.929 64.47 35.489000000000004 59.393 34.877 C 54.209 34.085 46.253 32.897000000000006 39.701 35.489000000000004 C 33.005 38.18900000000001 24.977 43.697 20.333000000000002 50.897000000000006 C 15.653000000000002 57.953 12.485000000000003 68.501 12.341000000000001 77.968 C 12.197000000000001 87.54400000000001 14.753 97.48 19.721 107.2 C 24.581 116.632 30.197000000000003 129.555 41.861000000000004 134.596 C 53.633 139.6 76.13300000000001 140.643 89.236 137.043 C 102.125 133.227 112.997 122.42800000000001 119.081 112.42 C 124.94800000000001 102.231 125.56 87.471 124.94800000000001 77.031 C 124.22800000000001 66.519 120.125 57.37500000000001 115.40800000000002 50.571000000000005 C 110.58500000000001 43.839000000000006 103.02400000000002 39.699000000000005 96.61600000000001 37.035000000000004 C 90.10000000000001 34.371 83.69200000000001 33.507000000000005 76.96100000000001 34.587 C 76.45700000000001 36.135000000000005 76.09700000000001 37.827000000000005 76.02400000000002 39.807 C 75.88000000000001 41.715 76.02400000000002 43.875 76.31200000000001 46.287000000000006 C 80.56000000000002 44.63100000000001 83.08100000000002 43.91100000000001 83.72800000000001 44.12700000000001 C 84.304 44.37900000000001 81.46000000000001 46.43100000000001 80.34400000000001 47.51100000000001 C 79.26400000000001 48.41100000000001 78.83200000000001 49.95900000000001 76.96000000000001 49.67100000000001 C 74.98 49.16700000000001 69.292 46.287000000000006 68.644 45.351000000000006 C 67.888 44.48700000000001 69.22 44.12700000000001 72.64 44.415000000000006 C 71.739 42.67900000000001 70.804 40.95100000000001 69.867 39.187000000000005 z" stroke-linecap="round" />
</g>
		<g transform="matrix(1 0 0 1 9.37 -41.08)"  >
<path style="stroke: rgb(0,0,0); stroke-width: 0.036; stroke-dasharray: none; stroke-linecap: butt; stroke-dashoffset: 0; stroke-linejoin: miter; stroke-miterlimit: 10; fill: rgb(198,144,44); fill-rule: evenodd; opacity: 1;" vector-effect="non-scaling-stroke"  transform=" translate(-73.55, -30.05)" d="M 72.93 41.646 C 72.93 39.342 72.93 36.426 72.64200000000001 33.042 C 72.31800000000001 29.514000000000003 71.81400000000001 24.042 71.418 21.054000000000002 C 70.914 17.994000000000003 69.798 15.942000000000002 70.15700000000001 14.898000000000003 C 70.48100000000001 13.746000000000004 72.02900000000001 14.106000000000003 73.254 14.574000000000003 C 74.369 14.898000000000003 76.52900000000001 15.690000000000003 76.962 17.346000000000004 C 77.285 18.930000000000003 76.17 21.342000000000002 75.70100000000001 24.438000000000002 C 75.233 27.462000000000003 74.55000000000001 32.178000000000004 74.477 35.814 C 74.405 39.378 74.765 42.762 75.414 45.966 C 74.586 44.525 73.758 43.085 72.93 41.646 z" stroke-linecap="round" />
</g>
		<g transform="matrix(1 0 0 1 -28.46 -54.99)"  >
<path style="stroke: rgb(0,0,0); stroke-width: 0.036; stroke-dasharray: none; stroke-linecap: butt; stroke-dashoffset: 0; stroke-linejoin: miter; stroke-miterlimit: 10; fill: rgb(0,194,0); fill-rule: evenodd; opacity: 1;" vector-effect="non-scaling-stroke"  transform=" translate(-35.72, -16.14)" d="M 68.321 30.593 C 67.277 24.905 63.893 19.829 58.169 15.221 C 52.193 10.504999999999999 43.120999999999995 4.781000000000001 33.869 2.9090000000000007 C 24.617000000000004 1.0370000000000008 14.501000000000001 1.2890000000000006 3.125 3.8090000000000006 C 12.017 5.1770000000000005 20.729 7.337000000000001 29.549 10.289000000000001 C 38.369 13.133000000000001 49.132999999999996 17.921 55.721000000000004 21.341 C 62.23800000000001 24.689 66.30600000000001 27.821 68.321 30.593000000000004 z" stroke-linecap="round" />
</g>
		<g transform="matrix(1 0 0 1 -28.77 -52.87)"  >
<path style="stroke: rgb(0,0,0); stroke-width: 0.036; stroke-dasharray: none; stroke-linecap: butt; stroke-dashoffset: 0; stroke-linejoin: miter; stroke-miterlimit: 10; fill: rgb(0,194,0); fill-rule: evenodd; opacity: 1;" vector-effect="non-scaling-stroke"  transform=" translate(-35.42, -18.26)" d="M 66.81 30.881 C 63.39 28.001 58.998000000000005 25.229 53.238 22.277 C 47.55 19.289 40.782 16.085 32.646 13.349 C 24.33 10.541 14.934000000000001 8.021 4.026 5.6450000000000005 C 10.469999999999999 11.009 16.734 15.221 23.105999999999998 18.569 C 29.442 21.773 34.446 23.285 41.861999999999995 25.337 C 49.169 27.389 57.342 29.189 66.81 30.881 z" stroke-linecap="round" />
</g>
</g>
</g>
</svg>

<?xml version="1.0" encoding="UTF-8" standalone="no"?>
<!-- Generator: Adobe Illustrator 10.0, SVG Export Plug-In . SVG Version: 3.0.0 Build 77)  -->
<svg
    xmlns:rdf="http://www.w3.org/1999/02/22-rdf-syntax-ns#"
    xmlns="http://www.w3.org/2000/svg"
    xmlns:x="http://ns.adobe.com/Extensibility/1.0/"
    xmlns:dc="http://purl.org/dc/elements/1.1/"
    xmlns:i="http://ns.adobe.com/AdobeIllustrator/10.0/"
    xmlns:cc="http://web.resource.org/cc/"
    xmlns:xlink="http://www.w3.org/1999/xlink"
    xmlns:a="http://ns.adobe.com/AdobeSVGViewerExtensions/3.0/"
    xmlns:graph="http://ns.adobe.com/Graphs/1.0/"
    xmlns:svg="http://www.w3.org/2000/svg"
    xmlns:inkscape="http://www.inkscape.org/namespaces/inkscape"
    xmlns:sodipodi="http://sodipodi.sourceforge.net/DTD/sodipodi-0.dtd"
    xmlns:ns1="http://sozi.baierouge.fr"
    i:rulerOrigin="0 0"
    i:viewOrigin="241 467"
    space="preserve"
    i:pageBounds="0 792 612 0"
    viewBox="0 0 128.352 142.267"
    enable-background="new 0 0 128.352 142.267"
    overflow="visible"
  >
  <g
      id="Layer_1"
      i:layer="yes"
      i:rgbTrio="#4F008000FFFF"
      i:dimmedPercent="50"
    >
    <g
        stroke-miterlimit="10"
        stroke="#000000"
        stroke-width=".036"
        clip-rule="evenodd"
        fill-rule="evenodd"
      >
      <path
          d="m63.714 34.589c-4.176-1.764-9.108-2.232-15.084-1.548-6.12 0.684-14.508 1.332-20.592 5.832-6.12 4.428-12.78 11.304-15.408 20.628-2.7 9.36-3.492 22.715-0.288 34.776 3.312 11.951 10.944 28.115 19.692 36.287 8.604 7.885 20.88 10.297 31.68 11.412 10.728 1.117 22.968-0.898 32.292-4.643 9.18-3.961 17.279-10.008 22.788-18.145 5.363-8.279 9.144-19.584 9.54-30.457 0.18-10.906-3.168-25.487-7.704-34.163-4.536-8.712-11.772-13.86-19.08-17.532-7.416-3.708-15.588-5.04-24.912-4.284-0.576-1.872-0.685-3.924-0.324-6.156 0.252-2.304 0.972-4.716 2.16-7.38 0.396-1.62 0.036-2.952-1.224-3.996-1.368-1.188-4.717-2.664-6.156-2.484-1.404 0.144-2.124 1.224-2.16 3.384 0.54 2.844 1.188 5.616 1.548 8.604 0.468 2.952 0.648 5.832 0.937 8.928-2.845-8.712-7.776-15.732-14.796-21.204-7.236-5.544-17.784-10.188-27.36-11.7-9.505-1.574-19.117-0.711-29.233 2.457 5.544 7.452 12.204 13.248 19.98 17.532 7.704 4.212 18.324 6.048 26.46 8.028 8.064 2.016 15.3 3.06 21.852 3.672-1.512 0.72-3.06 1.441-4.608 2.16z"
          i:knockout="Off"
      />
      <path
          d="m69.869 39.197c-2.052-2.268-5.399-3.708-10.476-4.32-5.184-0.792-13.14-1.98-19.692 0.612-6.696 2.7-14.724 8.208-19.368 15.408-4.68 7.056-7.848 17.604-7.992 27.071-0.144 9.576 2.412 19.512 7.38 29.232 4.86 9.432 10.476 22.355 22.14 27.396 11.772 5.004 34.272 6.047 47.375 2.447 12.889-3.816 23.761-14.615 29.845-24.623 5.867-10.189 6.479-24.949 5.867-35.389-0.72-10.512-4.823-19.656-9.54-26.46-4.823-6.732-12.384-10.872-18.792-13.536-6.516-2.664-12.924-3.528-19.655-2.448-0.504 1.548-0.864 3.24-0.937 5.22-0.144 1.908 0 4.068 0.288 6.48 4.248-1.656 6.769-2.376 7.416-2.16 0.576 0.252-2.268 2.304-3.384 3.384-1.08 0.9-1.512 2.448-3.384 2.16-1.98-0.504-7.668-3.384-8.316-4.32-0.756-0.864 0.576-1.224 3.996-0.936-0.901-1.736-1.836-3.464-2.773-5.228z"
          i:knockout="Off"
          fill="#FF0000"
      />
      <path
          d="m72.93 41.646c0-2.304 0-5.22-0.288-8.604-0.324-3.528-0.828-9-1.224-11.988-0.504-3.06-1.62-5.112-1.261-6.156 0.324-1.152 1.872-0.792 3.097-0.324 1.115 0.324 3.275 1.116 3.708 2.772 0.323 1.584-0.792 3.996-1.261 7.092-0.468 3.024-1.151 7.74-1.224 11.376-0.072 3.564 0.288 6.948 0.937 10.152-0.828-1.441-1.656-2.881-2.484-4.32z"
          i:knockout="Off"
          fill="#C6902C"
      />
      <path
          d="m68.321 30.593c-1.044-5.688-4.428-10.764-10.152-15.372-5.976-4.716-15.048-10.44-24.3-12.312s-19.368-1.62-30.744 0.9c8.892 1.368 17.604 3.528 26.424 6.48 8.82 2.844 19.584 7.632 26.172 11.052 6.517 3.348 10.585 6.48 12.6 9.252z"
          i:knockout="Off"
          fill="#00C200"
      />
      <path
          d="m66.81 30.881c-3.42-2.88-7.812-5.652-13.572-8.604-5.688-2.988-12.456-6.192-20.592-8.928-8.316-2.808-17.712-5.328-28.62-7.704 6.444 5.364 12.708 9.576 19.08 12.924 6.336 3.204 11.34 4.716 18.756 6.768 7.307 2.052 15.48 3.852 24.948 5.544z"
          i:knockout="Off"
          fill="#00C200"
      />
    </g
    >
  </g
  >
  <metadata
    >
    <rdf:RDF
      >
      <cc:Work
        >
        <dc:format
          >image/svg+xml</dc:format
        >
        <dc:type
            rdf:resource="http://purl.org/dc/dcmitype/StillImage"
        />
        <cc:license
            rdf:resource="http://creativecommons.org/licenses/publicdomain/"
        />
        <dc:publisher
          >
          <cc:Agent
              rdf:about="http://openclipart.org/"
            >
            <dc:title
              >Openclipart</dc:title
            >
          </cc:Agent
          >
        </dc:publisher
        >
        <dc:title
          >Simple Fruit Apple</dc:title
        >
        <dc:date
          >2007-11-15T00:18:12</dc:date
        >
        <dc:description
        />
        <dc:source
          >https://openclipart.org/detail/8538/simple-fruit-apple-by-gerald_g</dc:source
        >
        <dc:creator
          >
          <cc:Agent
            >
            <dc:title
              >Gerald_G</dc:title
            >
          </cc:Agent
          >
        </dc:creator
        >
        <dc:subject
          >
          <rdf:Bag
            >
            <rdf:li
              >apple</rdf:li
            >
            <rdf:li
              >food</rdf:li
            >
            <rdf:li
              >fruit</rdf:li
            >
          </rdf:Bag
          >
        </dc:subject
        >
      </cc:Work
      >
      <cc:License
          rdf:about="http://creativecommons.org/licenses/publicdomain/"
        >
        <cc:permits
            rdf:resource="http://creativecommons.org/ns#Reproduction"
        />
        <cc:permits
            rdf:resource="http://creativecommons.org/ns#Distribution"
        />
        <cc:permits
            rdf:resource="http://creativecommons.org/ns#DerivativeWorks"
        />
      </cc:License
      >
    </rdf:RDF
    >
  </metadata
  >
</svg
>
